X: 2251
%%beginps
/shd{	% usage: x y shd
	M 3 1.3 RM
	-1 2.5 -6.5 0 -5.5 -2.5 RC
	1 -2.5 6.5 0 5.5 2.5 RC fill}!
%%endps
%%deco head-small 0 shd 0 0 0	% small note head
U:s = +head-small+
T:Polska efter Larshöga Jonke
T:(SvL Medelpad nr. 183)
B:Svenska Låtar Medelpad nr 183
O:Medelpad
S:efter Anders Sundin
S:efter Larshöga Jonke
R:Polska
Z:Nils L
M: 3/4
L: 1/16
K: E
v(B2 | e2)(ed) e2(ed) (ed)ef | (f=g)ge f2(fd) (ed)e^g | b2(bg) a2(af) g2(fe) | (de)fd (ef)ge (B4 |
e2)(ed) e2(ed) (ed)ef | (f=g)ge f2(fd) (ed)e^g | b2(bg) a2(af) g2(fe) |1 (de)fd [fsd]2e2 !tenuto![ee]2 :|
[2 (de)fd [fsd]2e2 e4 |: [K:A] e2(ae) B2(fB) c2(ec) | d2(fa) (Ac)ec [B-sE]4 | B2(eB) c2(ec) d2(fd) | 
c2(ec) (EG)(BG) [AA]4- | [AA]4 [B4sE4] [sE2c2]Bc | d2fd cdef g2a2 | (ba)gf (ef)ed (cB)cd | 
[1 (EG).B.G B2[AA]2 [AA]4 :| (EG).B.G B2[AA]2 [AA]2 |]
(:musicend:)
(:music:)
